fast-admin/src/assets/icons/tree.svg

<svg t="1650623941490" class="icon" viewBox="0 0 1024 1024" version="1.1" xmlns="http://www.w3.org/2000/svg" p-id="9166" width="200" height="200"><path d="M977.454545 558.545455h-34.90909v-104.727273c0-44.218182-37.236364-81.454545-81.454546-81.454546H546.909091v-93.090909H744.727273c25.6 0 46.545455-20.945455 46.545454-46.545454V93.090909c0-25.6-20.945455-46.545455-46.545454-46.545454H279.272727c-25.6 0-46.545455 20.945455-46.545454 46.545454v139.636364c0 25.6 20.945455 46.545455 46.545454 46.545454h197.818182v93.090909H162.909091c-44.218182 0-81.454545 37.236364-81.454546 81.454546V558.545455H46.545455c-25.6 0-46.545455 20.945455-46.545455 46.545454v325.818182c0 25.6 20.945455 46.545455 46.545455 46.545454h139.636363c25.6 0 46.545455-20.945455 46.545455-46.545454V605.090909c0-25.6-20.945455-46.545455-46.545455-46.545454H151.272727v-104.727273c0-6.981818 4.654545-11.636364 11.636364-11.636364h314.181818v116.363637H442.181818c-25.6 0-46.545455 20.945455-46.545454 46.545454v325.818182c0 25.6 20.945455 46.545455 46.545454 46.545454h139.636364c25.6 0 46.545455-20.945455 46.545454-46.545454V605.090909c0-25.6-20.945455-46.545455-46.545454-46.545454h-34.909091v-116.363637H861.090909c6.981818 0 11.636364 4.654545 11.636364 11.636364V558.545455H837.818182c-25.6 0-46.545455 20.945455-46.545455 46.545454v325.818182c0 25.6 20.945455 46.545455 46.545455 46.545454h139.636363c25.6 0 46.545455-20.945455 46.545455-46.545454V605.090909c0-25.6-20.945455-46.545455-46.545455-46.545454zM162.909091 628.363636v279.272728H69.818182V628.363636h93.090909z m395.636364 0v279.272728h-93.09091V628.363636h93.09091zM302.545455 209.454545V116.363636h418.90909v93.090909H302.545455z m651.636363 698.181819h-93.090909V628.363636h93.090909v279.272728z" p-id="9167"></path></svg>

<svg class="icon" viewBox="0 0 1024 1024" xmlns="http://www.w3.org/2000/svg" width="200" height="200"><path d="M977.455 558.545h-34.91V453.818c0-44.218-37.236-81.454-81.454-81.454H546.909v-93.091h197.818c25.6 0 46.546-20.946 46.546-46.546V93.091c0-25.6-20.946-46.546-46.546-46.546H279.273c-25.6 0-46.546 20.946-46.546 46.546v139.636c0 25.6 20.946 46.546 46.546 46.546H477.09v93.09H162.909c-44.218 0-81.454 37.237-81.454 81.455v104.727h-34.91C20.945 558.545 0 579.491 0 605.091v325.818c0 25.6 20.945 46.546 46.545 46.546h139.637c25.6 0 46.545-20.946 46.545-46.546V605.091c0-25.6-20.945-46.546-46.545-46.546h-34.91V453.818c0-6.982 4.655-11.636 11.637-11.636h314.182v116.363h-34.91c-25.6 0-46.545 20.946-46.545 46.546v325.818c0 25.6 20.946 46.546 46.546 46.546h139.636c25.6 0 46.546-20.946 46.546-46.546V605.091c0-25.6-20.946-46.546-46.546-46.546H546.91V442.182h314.182c6.982 0 11.636 4.654 11.636 11.636v104.727h-34.909c-25.6 0-46.545 20.946-46.545 46.546v325.818c0 25.6 20.945 46.546 46.545 46.546h139.637c25.6 0 46.545-20.946 46.545-46.546V605.091c0-25.6-20.945-46.546-46.545-46.546zm-814.546 69.819v279.272H69.82V628.364h93.09zm395.636 0v279.272h-93.09V628.364h93.09zm-256-418.91v-93.09h418.91v93.09h-418.91zm651.637 698.182H861.09V628.364h93.09v279.272z"/></svg>
